!!!!SEGMENT: pl-wtm--r-1226--017_lodwigowski-edward-stefan--hej-w-kolo-dabrowy.krn
!!!cenid: 18xx:1933
!!!COM: Łodwigowski, Edward Stefan
!!!COM-rism: pe30111147
!!!CDT: 1815/08/14-1895/11/12
!!!CNT: Polish
!!!OTL: Hej w koło dąbrowy
!!!PDT:
!!!AGN:
!!!SMS-siglum: PL-Wtm
!!!SMS-shelfmark: R 1226
!!!NIFC-rismID: 1001084005
!!!URL-scan: http://repozytorium.nifc.pl/skany/pl-wtm-nut--r1226-1227
!!!ONB-nifc: UWAGA: No. 65
!!!SMS-variant:
!!!SMS-altvar:
!!!OMD: Vivace
**kern	**fing	**kern	**fing	**dynam
*part1	*part1	*part1	*part1	*part1
*staff2	*staff2	*staff1	*staff1	*
*I"Fortepian	*	*I"Fortepian	*	*
*clefF4	*	*clefG2	*	*
*k[b-]	*	*k[b-]	*	*
*M2/4	*	*M2/4	*	*
*all\right	*	*all\right	*	*
=1	=1	=1	=1	=1
!	!	!LO:TX:Bi:a:t=No 65.	!	!
!	!	!LO:TX:i:a:t=Hej w koło dąbrowy. I.F Dobrzyńskiego	!	!LO:DY:rj
8cL 8A 8F'\	.	8ff\L	1	f
8c 8A 8F'\	.	8aa\	.	.
8c 8A 8F'\	.	8ff\	.	.
8cJ 8A 8F'\	.	8aa\J	.	.
=2	=2	=2	=2	=2
8cL 8A 8F'\	.	(4ddd\	.	.
8c 8A 8F'\	.	.	.	.
8c 8A 8F'\	.	8ccc|\)	.	.
8cJ 8A 8F'\	.	8r	.	.
=3	=3	=3	=3	=3
*	*	*^	*^	*
*	*	*	*2\right	*	*	*
8cL 8B- 8F'\	.	8gg/L	2ee\	2	1	.
8c 8B- 8F'\	.	8bb-/	.	.	.	.
8c 8B- 8F'\	.	8aa/	.	.	.	.
8cJ 8B- 8F'\	.	8gg/J	.	.	.	.
*	*	*	*	*v	*v	*
=4	=4	=4	=4	=4	=4
*	*	*	*	*ela	*
8cL 8A 8F'\	.	(4ff/	4ff\	1-3	.
*	*	*	*	*Xela	*
8c 8A 8F'\	.	.	.	.	.
8c 8A 8F'\	.	8cc/)	8cc\	.	.
8cJ 8A 8F'\	.	8r	8ryy	.	.
*	*	*v	*v	*	*
=5	=5	=5	=5	=5
8cL 8A 8F\	.	8ff\L	1	.
8c 8A 8F\	.	8aa\	.	.
8c 8A 8F\	.	8ff\	.	.
8cJ 8A 8F\	.	8aa\J	.	.
!!LO:LB:g=original
=6	=6	=6	=6	=6
8cL 8A 8F\	.	(4ddd\	.	.
8c 8A 8F\	.	.	.	.
8c 8A 8F\	.	8ccc|\)	.	.
8cJ 8A 8F\	.	8r	.	.
=7	=7	=7	=7	=7
*	*	*^	*	*
8cL 8B- 8F\	.	8gg/L	2ee\	.	.
8c 8B- 8F\	.	8bb-/	.	.	.
8c 8B- 8F\	.	8aa/	.	.	.
8cJ 8B- 8F\	.	8gg/J	.	.	.
=8	=8	=8	=8	=8	=8
8cL 8A 8F\	.	4ff/	4ff\	.	.
8cJ 8A 8F\	.	.	.	.	.
4c 4A 4F\	.	4r	4ryy	.	.
*	*	*v	*v	*	*
*clefG2	*	*	*	*
=9	=9	=9	=9	=9
*^	*	*	*	*
*	*2\right	*	*	*	*
!	!	!	!	!	!LO:DY:rj
8r	2c#X\	.	8aa\L	3	p
8aL 8g 8e/	.	.	(8aa\	.	.
8a 8g 8e/	.	.	8gg#X\	.	.
8aJ 8g 8e/	.	.	8aa\J	.	.
=10	=10	=10	=10	=10	=10
8r	2d\	.	4ddd\	.	.
8aL 8f/	.	.	.	.	.
8a 8f/	.	.	4aa\)	.	.
8aJ 8f/	.	.	.	.	.
=11	=11	=11	=11	=11	=11
8r	2c#X\	.	8aa\L	.	.
8aL 8g 8e/	.	.	(8aa\	.	.
8a 8g 8e/	.	.	8gg#X\	.	.
8aJ 8g 8e/	.	.	8aa\J	1	.
!!LO:LB:g=original
=12	=12	=12	=12	=12	=12
8d/L	4d\	.	4fff\	.	.
8aJ 8f/	.	.	.	.	.
8cn/L	4cn\	.	4ddd\)	.	.
8a-XJ 8f/	.	.	.	.	.
=13	=13	=13	=13	=13	=13
8r	2Bn\	.	(8gg\L	1	.
8gL 8f 8d/	.	.	8gg\	3	.
8g 8f 8d/	.	.	8ff#X\	2	.
8gJ 8f 8d/	.	.	8gg\J	1	.
=14	=14	=14	=14	=14	=14
8r	2c\	.	4ccc\	3	.
8gL 8e/	.	.	.	.	.
8g 8e/	.	.	4gg\)	1	.
8gJ 8e/	.	.	.	.	.
=15	=15	=15	=15	=15	=15
8r	2G\	.	(8ddd\L	.	.
8fL 8Bn/	.	.	8fff\	.	.
8f 8B/	.	.	8eee\	.	.
8fJ 8B/	.	.	8ddd\J	.	.
=16	=16	=16	=16	=16	=16
*	*	*^	*	*	*
8e/L	8c\L	2	.4	(4ddd\	.	.
8g/J	8e\J	.	.	.	.	.
8e/	8c\	.	.	8ccc|\))	.	.
8r	8r	.	.	8r	.	.
*	*	*v	*v	*	*	*
*v	*v	*	*	*	*
*clefF4	*	*	*	*
=17	=17	=17	=17	=17
!	!	!	!	!LO:DY:rj
8cL 8A 8F\	.	8ff\L	.	f
8c 8A 8F\	.	8aa\	.	.
8c 8A 8F\	.	8ff\	.	.
8cJ 8A 8F\	.	8aa\J	.	.
=18	=18	=18	=18	=18
8cL 8A 8F\	.	4ddd\	.	.
8c 8A 8F\	.	.	.	.
8c 8A 8F\	.	4ccc\	.	.
8cJ 8A 8F\	.	.	.	.
!!LO:LB:g=original
=19	=19	=19	=19	=19
*	*	*^	*	*
8cL 8B- 8F\	.	8gg/L	2ee\	.	.
8c 8B- 8F\	.	8bb-/	.	.	.
8c 8B- 8F\	.	8aa/	.	.	.
8cJ 8B- 8F\	.	8gg/J	.	.	.
=20	=20	=20	=20	=20	=20
8cL 8A 8F\	.	4ff/	4ff\	.	.
8c 8A 8F\	.	.	.	.	.
8c 8A 8F\	.	8cc/	8cc\	.	.
8cJ 8A 8F\	.	8r	8ryy	.	.
*	*	*v	*v	*	*
=21	=21	=21	=21	=21
8cL 8A 8F\	.	8ff\L	.	.
8c 8A 8F\	.	8aa\	.	.
8c 8A 8F\	.	8ff\	.	.
8cJ 8A 8F\	.	8aa\J	.	.
=22	=22	=22	=22	=22
8cL 8F#X 8D\	.	4ddd\	.	.
8c 8F# 8D\	.	.	.	.
8c 8F# 8D\	.	4ccc\	.	.
8cJ 8F# 8D\	.	.	.	.
=23	=23	=23	=23	=23
8B- 8G\	2	(8gg\L	2	.
8r	.	8bb-\J	.	.
8B- 8E 8C'\	.	8.aa\L	.	.
8r	.	.	.	.
.	.	16gg\Jk)	.	.
=24	=24	=24	=24	=24
8AL 8F\	.	(4gg\	.	.
8c\	.	.	.	.
8AJ 8F\	.	8ff\)	.	.
8r	.	8r	.	.
==	==	==	==	==
*-	*-	*-	*-	*-
!!!system-decoration: {p1}
!!!RDF**kern: > = above
!!!RDF**kern: < = below
!!!RDF**kern: | = vertical stroke
!!!ENC: Andrzej Kubiczek
!!!END: 2021-05-02
!!!ENC: Andrzej Gręziak
!!!END: 2021-04-17
